!!!COM: Corelli, Arcangelo
!!!OTL: 
!!!ONM: Opus 6, No. 9
!!!OMV: 4
!!!CDT: 1653/2/17/-1713/1/8/
!!!OCY: Italia
**kern	**kern	**kern	**kern	**kern	**kern	**kern
*clefC	*clefG	*clefG	*clefG	*clefC	*clefG	*clefG
*k[b-]	*k[b-]	*k[b-]	*k[b-]	*k[b-]	*k[b-]	*k[b-]
*F:	*F:	*F:	*F:	*F:	*F:	*F:
*M4/4	*M4/4	*M4/4	*M4/4	*M4/4	*M4/4	*M4/4
2..r	2..r	2..r	2..r	2..r	2..r	2..r
8r	8r	8r	8r	8r	8r	8cc
=1	=1	=1	=1	=1	=1	=1
1r	1r	1r	1r	4.F	4cc	8a
.	.	.	.	.	.	8f
.	.	.	.	.	4a	8cc
.	.	.	.	8F	.	8ff
.	.	.	.	8c	4g	8ee
.	.	.	.	8B-	.	4cc
.	.	.	.	8A	8r	.
.	.	.	.	8F	8cc	8ff
=2	=2	=2	=2	=2	=2	=2
1r	1r	1r	1r	8B-	4f	8dd
.	.	.	.	8G	.	8b-
.	.	.	.	8c	4e	8g
.	.	.	.	8C	.	16cc
.	.	.	.	.	.	16b-
.	.	.	.	8F	2f	8a
.	.	.	.	8G	.	4f
.	.	.	.	8A	.	.
.	.	.	.	8G	.	8cc
=3	=3	=3	=3	=3	=3	=3
1r	1r	1r	1r	8F	4a	8ff
.	.	.	.	8E	.	8cc
.	.	.	.	8F	4cc	8aa
.	.	.	.	16E	.	16gg
.	.	.	.	16D	.	16ff
.	.	.	.	8E	4.cc	8gg
.	.	.	.	8D	.	8g
.	.	.	.	8E	.	8cc
.	.	.	.	8C	8ee	8gg
=4	=4	=4	=4	=4	=4	=4
1r	1r	1r	2..r	8F	8a	8aa
.	.	.	.	16E	8cc	8ee
.	.	.	.	16F	.	.
.	.	.	.	8G	8g	4dd
.	.	.	.	8GG	16cc	.
.	.	.	.	.	16b	.
.	.	.	.	4C	4cc	4.cc
.	.	.	.	4r	4r	.
.	.	.	8cc	.	.	8cc
=5	=5	=5	=5	=5	=5	=5
4.F	4cc	4cc	8a	4.F	4cc	8a
.	.	.	8f	.	.	8f
.	4cc	4a	8cc	.	4a	8cc
8F	.	.	8ff	8F	.	8ff
8c	4cc	4g	8ee	8c	4g	8ee
8B-	.	.	4cc	8B-	.	4cc
8A	8r	8r	.	8A	8r	.
8F	8a	8cc	8ff	8F	8cc	8ff
=6	=6	=6	=6	=6	=6	=6
8B-	4d	4f	8dd	8B-	4f	8dd
8G	.	.	8b-	8G	.	8b-
8c	4c	4e	8g	8c	4e	8g
8C	.	.	16cc	8C	.	16cc
.	.	.	16b-	.	.	16b-
8F	2c	2f	8a	8F	2f	8a
8G	.	.	4f	8G	.	4f
8A	.	.	.	8A	.	.
8G	.	.	8cc	8G	.	8cc
=7	=7	=7	=7	=7	=7	=7
8F	4cc	4a	8ff	8F	4a	8ff
8E	.	.	8cc	8E	.	8cc
8F	4cc	4cc	8aa	8F	4cc	8aa
16E	.	.	16gg	16E	.	16gg
16D	.	.	16ff	16D	.	16ff
8E	4.cc	4.cc	8gg	8E	4.cc	8gg
8D	.	.	8g	8D	.	8g
8E	.	.	8cc	8E	.	8cc
8C	8cc	8ee	8gg	8C	8ee	8gg
=8	=8	=8	=8	=8	=8	=8
8F	8cc	8a	8aa	8F	8a	8aa
16E	8g	8cc	8ee	16E	8cc	8ee
16F	.	.	.	16F	.	.
8G	8g	8g	4dd	8G	8g	4dd
8GG	16f	16cc	.	8GG	16cc	.
.	16g	16b	.	.	16b	.
4C	4e	4cc	4cc	4C	4cc	4.cc
4r	4r	4r	4r	4r	4r	.
.	.	.	.	.	.	8gg
=9	=9	=9	=9	=9	=9	=9
1r	1r	1r	1r	4c	4.gg	8ee
.	.	.	.	.	.	8cc
.	.	.	.	4G	.	8b
.	.	.	.	.	8b	8gg
.	.	.	.	4C	8cc	8ee
.	.	.	.	.	8g	4cc
.	.	.	.	4r	4c	.
.	.	.	.	.	.	8aa
=10	=10	=10	=10	=10	=10	=10
1r	1r	1r	1r	4d	4.aa	8ff
.	.	.	.	.	.	8dd
.	.	.	.	4A	.	8cc#
.	.	.	.	.	8cc#	8aa
.	.	.	.	4D	8dd	8ff
.	.	.	.	.	8a	4dd
.	.	.	.	4r	4d	.
.	.	.	.	.	.	8bb-
=11	=11	=11	=11	=11	=11	=11
1r	1r	1r	1r	4e	4.ccc	8gg
.	.	.	.	.	.	8ee
.	.	.	.	4c	.	8gg
.	.	.	.	.	8ee	8ccc
.	.	.	.	4f	4.ff	8aa
.	.	.	.	.	.	8cc
.	.	.	.	4A	.	[4ff
.	.	.	.	.	8cc	.
=12	=12	=12	=12	=12	=12	=12
1r	1r	1r	1r	4B-	4.ff	8ff]
.	.	.	.	.	.	8cc
.	.	.	.	4c	.	4.ff
.	.	.	.	.	8cc	.
.	.	.	.	4d	4.ff	.
.	.	.	.	.	.	8cc
.	.	.	.	4A	.	8ff
.	.	.	.	.	8aa	8ccc
=13	=13	=13	=13	=13	=13	=13
1r	1r	1r	1r	4B-	8gg	8ee
.	.	.	.	.	8ff	16ff
.	.	.	.	.	.	16gg
.	.	.	.	4c	8cc	4gg
.	.	.	.	.	16ff	.
.	.	.	.	.	16ee	.
.	.	.	.	4F	4.ff	8ff
.	.	.	.	.	.	8cc
.	.	.	.	4AA	.	[4ff
.	.	.	.	.	8cc	.
=14	=14	=14	=14	=14	=14	=14
1r	1r	1r	1r	4BB-	4.ff	8ff]
.	.	.	.	.	.	8cc
.	.	.	.	4C	.	4.ff
.	.	.	.	.	8cc	.
.	.	.	.	4D	4.ff	.
.	.	.	.	.	.	8cc
.	.	.	.	4AA	.	8ff
.	.	.	.	.	8aa	8ccc
=15	=15	=15	=15	=15	=15	=15
1r	1r	1r	2..r	4BB-	8gg	8ee
.	.	.	.	.	8ff	16ff
.	.	.	.	.	.	16gg
.	.	.	.	4C	8cc	4gg
.	.	.	.	.	16ff	.
.	.	.	.	.	16ee	.
.	.	.	.	4FF	4ff	4.ff
.	.	.	.	4r	4r	.
.	.	.	8gg	.	.	8gg
=16	=16	=16	=16	=16	=16	=16
4c	4g	4.gg	8ee	4c	4.gg	8ee
.	.	.	8cc	.	.	8cc
4G	4g	.	8b	4G	.	8b
.	.	8b	8gg	.	8b	8gg
4C	4g	8cc	8ee	4C	8cc	8ee
.	.	8g	4cc	.	8g	4cc
4r	4r	4c	.	4r	4c	.
.	.	.	8aa	.	.	8aa
=17	=17	=17	=17	=17	=17	=17
4d	4a	4.aa	8ff	4d	4.aa	8ff
.	.	.	8dd	.	.	8dd
4A	4a	.	8cc#	4A	.	8cc#
.	.	8cc#	8aa	.	8cc#	8aa
4D	4a	8dd	8ff	4D	8dd	8ff
.	.	8a	4dd	.	8a	4dd
4r	4r	4d	.	4r	4d	.
.	.	.	8bb-	.	.	8bb-
=18	=18	=18	=18	=18	=18	=18
4e	4cc	4.ccc	8gg	4e	4.ccc	8gg
.	.	.	8ee	.	.	8ee
4c	4cc	.	8gg	4c	.	8gg
.	.	8ee	8ccc	.	8ee	8ccc
4f	4cc	4.ff	8aa	4f	4.ff	8aa
.	.	.	8cc	.	.	8cc
4A	4c	.	[4ff	4A	.	[4ff
.	.	8cc	.	.	8cc	.
=19	=19	=19	=19	=19	=19	=19
4B-	4d	4.ff	8ff]	4B-	4.ff	8ff]
.	.	.	8cc	.	.	8cc
4c	4e	.	4.ff	4c	.	4.ff
.	.	8cc	.	.	8cc	.
4d	4f	4.ff	.	4d	4.ff	.
.	.	.	8cc	.	.	8cc
4A	4c	.	8ff	4A	.	8ff
.	.	8aa	8ccc	.	8aa	8ccc
=20	=20	=20	=20	=20	=20	=20
4B-	4d	8gg	8ee	4B-	8gg	8ee
.	.	8ff	16ff	.	8ff	16ff
.	.	.	16gg	.	.	16gg
4c	8r	8cc	4gg	4c	8cc	4gg
.	8c	16ff	.	.	16ff	.
.	.	16ee	.	.	16ee	.
4F	4A	4.ff	8ff	4F	4.ff	8ff
.	.	.	8cc	.	.	8cc
4AA	4c	.	[4ff	4AA	.	[4ff
.	.	8cc	.	.	8cc	.
=21	=21	=21	=21	=21	=21	=21
4BB-	4d	4.ff	8ff]	4BB-	4.ff	8ff]
.	.	.	8cc	.	.	8cc
4C	4e	.	4.ff	4C	.	4.ff
.	.	8cc	.	.	8cc	.
4D	4f	4.ff	.	4D	4.ff	.
.	.	.	8cc	.	.	8cc
4AA	4c	.	8ff	4AA	.	8ff
.	.	8aa	8ccc	.	8aa	8ccc
=22	=22	=22	=22	=22	=22	=22
4BB-	4d	8gg	8ee	4BB-	8gg	8ee
.	.	8ff	16ff	.	8ff	16ff
.	.	.	16gg	.	.	16gg
4C	8r	8cc	4gg	4C	8cc	4gg
.	8c	16ff	.	.	16ff	.
.	.	16ee	.	.	16ee	.
4.FF	4.A	4.ff	4.ff	4.FF	4.ff	4.ff
8r	8r	8r	8r	8r	8r	8r
==	==	==	==	==	==	==
*-	*-	*-	*-	*-	*-	*-
!!!RWG: This file only contains pitch and duration data.
!!!RWG: Transposing instruments are not transposed.
!!!RWG: Durations of rests and tied notes may be interpreted.
!!!RWG: Key is interpreted using the Humdrum key tool.
!!!SCA: 
!!!YOR: Chrysander Edition
!!!AGN: concerto grosso
!!!AFT: stage1
!!!ENC: F. Bennion
!!!END: 1997/04/15
!!!AST: baroque
!!!YEC: Copyright 1994, Center for Computer Assisted Research in the Humanities
!!!YEM: Rights to all derivative electronic formats reserved.
!!!YEM: Refer to licensing agreement for further details.
!!!YEN: United States of America
!!!EED: W.B. Hewlett
!!!KEY: 3155917144
!!!EMD: Converted from MuseData to Humdrum Aug 9, 1999, by Bret Aarden using muse2kern.
!!!VTS: 2428575449
